X:83
T:Pepper is black. Ed.1665.
T:John Malchair's Third Collection of Tunes
%%VWML:Malchair-3619-p83
F:https://www.vwml.org/record/Malchair/3619/p83
F:www.vwml.org/topics/historic-dance-and-tune-books/Malchair
Z:Eric Conrad Apr 2020
M:6/4
L:1/4
K:Dmix
c2A e2e | c>BA e2A | ded e>fg/a/ | f3 d3 ||
|: efg a>ba | efg g>fg | f2g a>bg/a/ | f3 d2d :|
T:Peggy Ramsey or Peg.
T:John Malchair's Third Collection of Tunes
F:https://www.vwml.org/record/Malchair/3619/p83
F:www.vwml.org/topics/historic-dance-and-tune-books/Malchair
% Z:Eric Conrad Apr 2020
W:Peg \u2014 a Ramsey mentioned by Shakespear in Twelfth Night Act 2d.
W:\u00a0 % extra space
W:\u00a0 % extra space
M:C|
L:1/4
K:Dmix % (?)
de fd | dc cd | eG GA | B2 A2 :|
BG GB | A^F DF | GG GA | B2 A2 |]
T:Peggy Ramsey. [with bass notes for A part as written lightly in MS]
T:John Malchair's Third Collection of Tunes
F:https://www.vwml.org/record/Malchair/3619/p83
F:www.vwml.org/topics/historic-dance-and-tune-books/Malchair
% Z:Eric Conrad Apr 2020
M:C|
L:1/4
K:Dmix % (?)
de fd &A,2 F,2 | dc cd & G2 E2 | eG GA & C2 A,2 | B2 A2 & F,2 D2 :|
BG GB | A^F DF | GG GA | B2 A2 |]
T:Monr F st Omer.
% T:Monsignor F[?] [of] St-Omer
T:John Malchair's Third Collection of Tunes
F:https://www.vwml.org/record/Malchair/3619/p83
F:www.vwml.org/topics/historic-dance-and-tune-books/Malchair
% Z:Eric Conrad Apr 2020
% N:In the MS, the directions given in the final measure are conflicting and not at all clear.
M:6/8
L:1/8
K:G
|: !segno!B2B B>cB | A2A A>BA | G2G B2d | A6 |
B2B B>cB | A2A A>BA | G2G A2F | !segno!G6 :|
|: D3 DEF | G2G GAB | A3 A2B/c/ | dBG G3 |
D3 DEF | G2G GAB | Adc BAG | !fermata!d4 ^c!segno! =cy!D.C.!y ||


